X:1
T:Title
%%score ( 1 2 ) 3
L:1/8
Q:1/4=103
M:4/4
K:Db
V:1 treble nm="Drawbar Organ, Soprano"
V:2 treble 
V:3 bass nm="Choir Pad, Hyderabad, 87.87.87 D"
V:1
 D>[DF] [FA]2 [Fd]2 [Ac]2 | [GB]2 [FA]2 [DF]4 | [DF]>[DF] [EG]2 [EG]2 [DF]2 | [CE]2 [DF]6 | %4
w: By~A.~A.~Armen,~19th~Century * * * *||||
 D>[DF] [FA]2 [Fd]2 [Ac]2 | [GB]2 [FA]2 [DF]4 | [DF]>[DF] [CE]2- [CE][CE] [D=G]2- | %7
w: |||
 [DG][D=G] [CA]6 | [CA]>[CA] [CA]2 [CE]2 [DF]2- | [DF][CG] [DG]2 [DF]4 | %10
w: |||
 [DA]>[DA] [CA]2 [CE]2 [DF]2- | [DF][CG] [DF]6 | [DF]>[EG] [FA]2 [DF]2 [Fd]2 | [FA]2 [GB]2 [Gd]4 | %14
w: ||||
 [GB]>[GB] [FA]2- [FA][FA] [GB]2 | [Gc]2 [Fd]6 | z2 d6 | z2 A4 z2 | %18
w: ||||
 [FA]>[Ad] e->[Ge-] [Ge-]>[Ge-] [Ge]>[GA] | [GB]>[GA] d->[Fd-] [Fd-]>[Fd-] [Fd]2 | %20
w: ||
 [FA]>[FA] d->[Fd-] [Fd-]>[Fd-] [Fd]>[Af] | [Ae]>[Ad] d->[Gd-] [Gd]>G [GB]2 | %22
w: ||
 [GB]>[Gd] c->[Ec-] [Ec-]>[Ec-] [Ec]>[FA] | [GB]>[Gc] d->[Fd-] [Gd-]>[Gd-] [Fd]2- | [Fd]4 z4 |] %25
w: |||
V:2
 x8 | x8 | x8 | x8 | x8 | x8 | x8 | x8 | x8 | x8 | x8 | x8 | x8 | x8 | x8 | x8 | %16
 [FA]>[FA] F>F F>F F>[FA] | [Ac]>[GB] F>F F>F [DF]2 | z2 G2 z4 | z2 F2 z4 | z2 F2 z4 | z2 G2 z4 | %22
 z2 E2 z4 | z2 F2 z4 | x8 |] %25
V:3
 [D,F,]>[D,A,] [D,D]2 [D,A,]2 [D,A,]2 | [D,D]2 [D,D]2 [D,A,]4 | %2
 [D,A,]>[D,A,] [A,,A,]2 [A,,A,]2 [A,,A,]2 | [A,,A,]2 [D,A,]6 | %4
 [D,F,]>[D,A,] [D,D]2 [D,A,]2 [D,A,]2 | [D,D]2 [D,D]2 [D,A,]4 | %6
 [D,A,]>[D,A,] [E,A,]2- [E,A,][E,A,] [E,B,]2- | [E,B,][E,B,] [A,,A,]6 | %8
 [A,,A,]>[A,,A,] [A,,A,]2 [A,,A,]2 [A,,A,]2- | [A,,A,][A,,A,] [D,B,]2 [D,A,]4 | %10
 [D,F,]>[D,F,] [A,,G,]2 [A,,A,]2 [A,,A,]2- | [A,,A,][A,,A,] [D,A,]6 | %12
 [D,A,]>[D,A,] [D,D]2 [D,A,]2 [D,A,]2 | [D,D]2 [G,D]2 [G,B,]4 | %14
 [G,D]>[G,D] [A,D]2- [A,D]A, [A,,A,]2 | [A,,A,]2 [D,A,]6 | %16
 [D,D]>[D,D] [D,A,]>[D,A,] [D,A,]>[D,A,] [D,A,]>[D,A,] | %17
 [D,A,]>[D,D] [D,D]>[D,D] [D,D]>[D,D] [D,A,]2 | [D,D]>[F,D] [A,C]>[A,C] [A,C]>[A,C] [A,C]>[A,C] | %19
 [A,C]>[A,C] [D,D]>[D,A,] [D,A,]>[D,A,] [D,A,]2 | %20
 [D,D]>[D,D] [D,A,]>[D,A,] [D,A,]>[D,A,] [D,A,]>[D,D] | %21
 [E,C]>[F,D] [G,B,]>[G,B,] [G,B,]>[G,B,] [G,D]2 | [G,D]>[G,B,] A,>A, A,>A, [A,,A,]>[A,,A,] | %23
 [A,,A,]>[A,,A,] [D,A,]>[D,A,] [D,B,]>[D,B,] [D,A,]2- | [D,A,]4 z4 |] %25

